assets/PDFtoMap.svg

<svg clip-rule="evenodd" stroke-linecap="round" stroke-linejoin="round" stroke-miterlimit="10" viewBox="0 0 4096 2048" xmlns="http://www.w3.org/2000/svg"><g><path d="m2477.67 570.512-109.07 25.608-47.42 46.474-27.51 63.546 18.97 49.32-46.47 36.041-34.15 55.959-5.69 51.216 43.63 66.392 40.78 37.942-8.53 51.21 51.21 71.14 87.26 21.81 71.13-25.61 1.9 43.63 23.71 52.17 116.66 49.32 82.52-10.44 82.51 55.01 112.87 83.47 44.58 73.03 36.04 74.92 13.28 58.81 40.78 37.94 70.18-14.23 29.41-100.54 5.69-84.41 126.14-6.64 112.87-60.7 55.95-88.2 18.03-82.52 79.67-64.49 3.79-87.26 46.47-128.043-23.71-92.948-65.44-36.041-7.59-74.928-44.58-63.546-57.85-37.938-75.88-9.484-30.35-52.165-62.6-63.547-91.05-19.917-66.39 8.536-25.61 18.969-122.35-91.051-100.53 12.33-95.8 55.01-107.17-14.227-110.97 35.093z" fill="#ffc9c9" fill-rule="evenodd"/><path d="m3036.83 1195.64-87.69 90.17 100.92 95.97 142.3 55.43 109.2-4.14 86.87-40.54 60.39-81.9 34.75-101.76-87.7-8.27-91-34.75-47.98 46.33-93.49 33.1-91-17.38z" fill="#ef8297" fill-rule="evenodd"/><path d="m2829.18 1307.32 97.62 91.83 69.49 106.72 25.65 106.72 63.7 38.06 79.42-51.29 9.1-160.5-140.64-57.91-95.97-93.48z" fill="#ffafb0" fill-rule="evenodd"/><g fill="none" stroke="#000" stroke-linecap="round" stroke-linejoin="round" stroke-width="32.2415"><path d="m2472.14 568.16s-118.94 9.815-166.72 92.806c-32.89 57.12 24.5 145.444 24.5 145.444"/><path d="m2296.57 761.157s-75.32 55.971-75.02 115.515 76.22 122.661 76.22 122.661"/><path d="m2348.48 949.226s-76.61 78.894-43.06 126.704c91.79 130.77 200.21 46.16 200.21 46.16"/><path d="m2468.96 624.444s4.07-107.246 84.18-139.521c174.78-70.417 245.84 37.372 245.84 37.372"/><path d="m2750.53 472.53s95.31-75.614 173.56-68.084 139.43 98.205 139.43 98.205"/><path d="m3014.62 598.094s33.53-123.445 111.92-129.518c178.56-13.832 202.45 138.32 202.45 138.32"/><path d="m3227.13 659.709s72.95-61.441 154.67-51.555c155.92 18.861 149.64 177.3 149.64 177.3"/><path d="m3461.02 790.484s104.43-12.864 138.32 47.783c47.78 85.507-31.44 208.733-31.44 208.733"/><path d="m3525.15 989.162s80.48 74.188 31.44 153.408c-83.88 135.5-251.49 20.12-251.49 20.12"/><path d="m3484.91 1212.99s-30.43 170.42-157.18 215.02c-203.71 71.68-373.46-129.52-373.46-129.52"/><path d="m3249.77 1045.75s79.85 19.49 124.49-8.81c44.63-28.29 54.07-104.364 54.07-104.364"/><path d="m3003.31 1137.54s35.36 97.19 118.2 105.63c209.99 21.37 206.22-181.08 206.22-181.08"/><path d="m3029.71 1204.19s-65.07 90.85-139.57 104.36c-74.51 13.52-158.44-50.29-158.44-50.29"/><path d="m2788.28 1189.1s-54.54 147.32-230.11 50.29c-143.35-79.21 31.44-233.88 31.44-233.88"/><path d="m2594.63 1008.02s-32.69-118.197 61.62-177.297c58.37-36.577 153.41 5.029 153.41 5.029"/><path d="m2813.43 838.267s6.81-75.416 75.45-95.566c137.06-40.239 207.48 52.813 207.48 52.813"/><path d="m2515.42 1075.93s-70.42-53.13-74.19-110.66c-3.78-57.528 59.1-119.458 59.1-119.458s-31.44-70.417 13.83-114.428c31.61-30.737 103.11-17.605 103.11-17.605s15.09-64.758 55.33-79.219 105.62 21.377 105.62 21.377"/><path d="m2750.56 1030.66s74.19 53.75 132.03 36.46 99.34-105.622 99.34-105.622 80.79 39.922 134.55 22.634c53.75-17.29 80.47-91.794 80.47-91.794s98.91-4.14 113.18-106.884c12.57-90.536-106.89-134.547-106.89-134.547s-41.49-71.675-128.26-66.645c-60.52 3.508-113.17 44.011-113.17 44.011"/><path d="m3172.25 1444.47-11.76 154.56s-31.12 42.75-65.39 45.26c-34.26 2.52-71.67-35.2-71.67-35.2s-16.04-111.92-81.74-193.65c-65.7-81.74-186.36-144.09-186.36-144.09"/></g></g><g fill-rule="evenodd"><path d="m1061.29 944.475 5.38 343.185s5.08 12.27 14.47 18.97c9.39 6.69 23.08 7.82 23.08 7.82l805.43-4s9.53 1.2 16.91 5.55c7.38 4.36 12.62 11.87 12.62 11.87l3.19 182.09s4.42 11.83 13.83 18.54c9.41 6.72 11.35 6.72 23.81 8.31 12.45 1.59 26.01-1.94 26.01-1.94l601.51-414.79s4.06-7.24 3.96-14.07c-.1-6.84-4.36-13.28-4.36-13.28l-607.08-402.477s-10.81-6.773-25.44-5.377-21.61 3.981-33.09 10.961-12.82 16.959-12.82 16.959l3.6 176.501s-3.18 9.584-9.8 15.417c-6.61 5.834-16.66 7.917-16.66 7.917l-808.17 6.206s-12.94 3.779-22.03 10.189c-9.1 6.409-14.35 15.449-14.35 15.449z" stroke="#000" stroke-linecap="round" stroke-linejoin="round" stroke-width="32.2415"/><path d="m1061.17 879.149 5.38 343.181s5.09 12.27 14.47 18.97c9.39 6.7 23.08 7.82 23.08 7.82l805.43-4s9.53 1.2 16.92 5.56c7.38 4.35 12.62 11.86 12.62 11.86l3.18 182.09s4.43 11.84 13.84 18.55 11.35 6.71 23.8 8.3c12.46 1.59 26.02-1.94 26.02-1.94l601.5-414.79s4.06-7.23 3.97-14.07c-.1-6.84-4.36-13.28-4.36-13.28l-607.08-402.473s-10.81-6.773-25.44-5.377c-14.64 1.396-21.62 3.981-33.09 10.961-11.48 6.98-12.83 16.959-12.83 16.959l3.6 176.502s-3.18 9.583-9.79 15.417c-6.62 5.833-16.67 7.916-16.67 7.916l-808.17 6.206s-12.93 3.779-22.03 10.189c-9.09 6.409-14.35 15.449-14.35 15.449z" fill="#fefefe" stroke="#000" stroke-linecap="round" stroke-linejoin="round" stroke-width="32.2415"/><path d="m2602 1040.2h25.36v69.14h-25.36z"/></g><path d="m2604.78 998.626-98.75 79.544 5.48 115.21 108.35 78.87 82.29-180.36z" fill="#ffc9c9" fill-rule="evenodd"/><path d="m2594.49 1009.6s-179.03 134-50.06 219.44c164.58 109.04 243.13-36.51 243.13-36.51" fill="none" stroke="#000" stroke-linecap="round" stroke-linejoin="round" stroke-width="32.2415"/></svg>

<?xml version="1.0" encoding="UTF-8" standalone="no"?>
<!DOCTYPE svg PUBLIC "-//W3C//DTD SVG 1.1//EN" "http://www.w3.org/Graphics/SVG/1.1/DTD/svg11.dtd">

<!-- Created with Vectornator (http://vectornator.io/) -->
<svg height="100%" stroke-miterlimit="10" style="fill-rule:nonzero;clip-rule:evenodd;stroke-linecap:round;stroke-linejoin:round;" version="1.1" viewBox="0 0 4096 2048" width="100%" xml:space="preserve" xmlns="http://www.w3.org/2000/svg" xmlns:vectornator="http://vectornator.io" xmlns:xlink="http://www.w3.org/1999/xlink">
<metadata>
<vectornator:setting key="IsTimeLapseWatermarkDisabled" value="false"/>
<vectornator:setting key="UndoHistoryDisabled" value="true"/>
<vectornator:setting key="VNDimensionsVisible" value="true"/>
<vectornator:setting key="VNSnapToGuides" value="true"/>
<vectornator:setting key="WDCMYKEnabledKey" value="false"/>
<vectornator:setting key="WDDisplayWhiteBackground" value="false"/>
<vectornator:setting key="WDDynamicGuides" value="false"/>
<vectornator:setting key="WDGuidesVisible" value="true"/>
<vectornator:setting key="WDIsolateActiveLayer" value="false"/>
<vectornator:setting key="WDOutlineMode" value="false"/>
<vectornator:setting key="WDRulersVisible" value="true"/>
<vectornator:setting key="WDSnapToEdges" value="false"/>
<vectornator:setting key="WDSnapToGrid" value="false"/>
<vectornator:setting key="WDSnapToPoints" value="false"/>
<vectornator:setting key="WDUnits" value="Pixels"/>
</metadata>
<defs/>
<g id="Layer-1" vectornator:layerName="Layer 1">
<g opacity="1">
<path d="M2477.67 570.512L2368.6 596.12L2321.18 642.594L2293.67 706.14L2312.64 755.46L2266.17 791.501L2232.02 847.46L2226.33 898.676L2269.96 965.068L2310.74 1003.01L2302.21 1054.22L2353.42 1125.36L2440.68 1147.17L2511.81 1121.56L2513.71 1165.19L2537.42 1217.36L2654.08 1266.68L2736.6 1256.24L2819.11 1311.25L2931.98 1394.72L2976.56 1467.75L3012.6 1542.67L3025.88 1601.48L3066.66 1639.42L3136.84 1625.19L3166.25 1524.65L3171.94 1440.24L3298.08 1433.6L3410.95 1372.9L3466.9 1284.7L3484.93 1202.18L3564.6 1137.69L3568.39 1050.43L3614.86 922.387L3591.15 829.439L3525.71 793.398L3518.12 718.47L3473.54 654.924L3415.69 616.986L3339.81 607.502L3309.46 555.337L3246.86 491.79L3155.81 471.873L3089.42 480.409L3063.81 499.378L2941.46 408.327L2840.93 420.657L2745.13 475.667L2637.96 461.44L2526.99 496.533L2477.67 570.512Z" fill="#ffc9c9" fill-rule="evenodd" opacity="1" stroke="none"/>
<path d="M3036.83 1195.64L2949.14 1285.81L3050.06 1381.78L3192.36 1437.21L3301.56 1433.07L3388.43 1392.53L3448.82 1310.63L3483.57 1208.87L3395.87 1200.6L3304.87 1165.85L3256.89 1212.18L3163.4 1245.28L3072.4 1227.9L3036.83 1195.64Z" fill="#ef8297" fill-rule="evenodd" opacity="1" stroke="none"/>
<path d="M2829.18 1307.32L2926.8 1399.15L2996.29 1505.87L3021.94 1612.59L3085.64 1650.65L3165.06 1599.36L3174.16 1438.86L3033.52 1380.95L2937.55 1287.47L2829.18 1307.32Z" fill="#ffafb0" fill-rule="evenodd" opacity="1" stroke="none"/>
<path d="M2472.14 568.16C2472.14 568.16 2353.2 577.975 2305.42 660.966C2272.53 718.086 2329.92 806.41 2329.92 806.41" fill="none" fill-rule="evenodd" opacity="1" stroke="#000000" stroke-linecap="round" stroke-linejoin="round" stroke-width="32.2415"/>
<path d="M2296.57 761.157C2296.57 761.157 2221.25 817.128 2221.55 876.672C2221.85 936.216 2297.77 999.333 2297.77 999.333" fill="none" fill-rule="evenodd" opacity="1" stroke="#000000" stroke-linecap="round" stroke-linejoin="round" stroke-width="32.2415"/>
<path d="M2348.48 949.226C2348.48 949.226 2271.87 1028.12 2305.42 1075.93C2397.21 1206.7 2505.63 1122.09 2505.63 1122.09" fill="none" fill-rule="evenodd" opacity="1" stroke="#000000" stroke-linecap="round" stroke-linejoin="round" stroke-width="32.2415"/>
<path d="M2468.96 624.444C2468.96 624.444 2473.03 517.198 2553.14 484.923C2727.92 414.506 2798.98 522.295 2798.98 522.295" fill="none" fill-rule="evenodd" opacity="1" stroke="#000000" stroke-linecap="round" stroke-linejoin="round" stroke-width="32.2415"/>
<path d="M2750.53 472.53C2750.53 472.53 2845.84 396.916 2924.09 404.446C3002.34 411.976 3063.52 502.651 3063.52 502.651" fill="none" fill-rule="evenodd" opacity="1" stroke="#000000" stroke-linecap="round" stroke-linejoin="round" stroke-width="32.2415"/>
<path d="M3014.62 598.094C3014.62 598.094 3048.15 474.649 3126.54 468.576C3305.1 454.744 3328.99 606.896 3328.99 606.896" fill="none" fill-rule="evenodd" opacity="1" stroke="#000000" stroke-linecap="round" stroke-linejoin="round" stroke-width="32.2415"/>
<path d="M3227.13 659.709C3227.13 659.709 3300.08 598.268 3381.8 608.154C3537.72 627.015 3531.44 785.454 3531.44 785.454" fill="none" fill-rule="evenodd" opacity="1" stroke="#000000" stroke-linecap="round" stroke-linejoin="round" stroke-width="32.2415"/>
<path d="M3461.02 790.484C3461.02 790.484 3565.45 777.62 3599.34 838.267C3647.12 923.774 3567.9 1047 3567.9 1047" fill="none" fill-rule="evenodd" opacity="1" stroke="#000000" stroke-linecap="round" stroke-linejoin="round" stroke-width="32.2415"/>
<path d="M3525.15 989.162C3525.15 989.162 3605.63 1063.35 3556.59 1142.57C3472.71 1278.07 3305.1 1162.69 3305.1 1162.69" fill="none" fill-rule="evenodd" opacity="1" stroke="#000000" stroke-linecap="round" stroke-linejoin="round" stroke-width="32.2415"/>
<path d="M3484.91 1212.99C3484.91 1212.99 3454.48 1383.41 3327.73 1428.01C3124.02 1499.69 2954.27 1298.49 2954.27 1298.49" fill="none" fill-rule="evenodd" opacity="1" stroke="#000000" stroke-linecap="round" stroke-linejoin="round" stroke-width="32.2415"/>
<path d="M3249.77 1045.75C3249.77 1045.75 3329.62 1065.24 3374.26 1036.94C3418.89 1008.65 3428.33 932.576 3428.33 932.576" fill="none" fill-rule="evenodd" opacity="1" stroke="#000000" stroke-linecap="round" stroke-linejoin="round" stroke-width="32.2415"/>
<path d="M3003.31 1137.54C3003.31 1137.54 3038.67 1234.73 3121.51 1243.17C3331.5 1264.54 3327.73 1062.09 3327.73 1062.09" fill="none" fill-rule="evenodd" opacity="1" stroke="#000000" stroke-linecap="round" stroke-linejoin="round" stroke-width="32.2415"/>
<path d="M3029.71 1204.19C3029.71 1204.19 2964.64 1295.04 2890.14 1308.55C2815.63 1322.07 2731.7 1258.26 2731.7 1258.26" fill="none" fill-rule="evenodd" opacity="1" stroke="#000000" stroke-linecap="round" stroke-linejoin="round" stroke-width="32.2415"/>
<path d="M2788.28 1189.1C2788.28 1189.1 2733.74 1336.42 2558.17 1239.39C2414.82 1160.18 2589.61 1005.51 2589.61 1005.51" fill="none" fill-rule="evenodd" opacity="1" stroke="#000000" stroke-linecap="round" stroke-linejoin="round" stroke-width="32.2415"/>
<path d="M2594.63 1008.02C2594.63 1008.02 2561.94 889.823 2656.25 830.723C2714.62 794.146 2809.66 835.752 2809.66 835.752" fill="none" fill-rule="evenodd" opacity="1" stroke="#000000" stroke-linecap="round" stroke-linejoin="round" stroke-width="32.2415"/>
<path d="M2813.43 838.267C2813.43 838.267 2820.24 762.851 2888.88 742.701C3025.94 702.462 3096.36 795.514 3096.36 795.514" fill="none" fill-rule="evenodd" opacity="1" stroke="#000000" stroke-linecap="round" stroke-linejoin="round" stroke-width="32.2415"/>
<path d="M2515.42 1075.93C2515.42 1075.93 2445 1022.8 2441.23 965.27C2437.45 907.742 2500.33 845.812 2500.33 845.812C2500.33 845.812 2468.89 775.395 2514.16 731.384C2545.77 700.647 2617.27 713.779 2617.27 713.779C2617.27 713.779 2632.36 649.021 2672.6 634.56C2712.84 620.099 2778.22 655.937 2778.22 655.937" fill="none" fill-rule="evenodd" opacity="1" stroke="#000000" stroke-linecap="round" stroke-linejoin="round" stroke-width="32.2415"/>
<path d="M2750.56 1030.66C2750.56 1030.66 2824.75 1084.41 2882.59 1067.12C2940.43 1049.83 2981.93 961.498 2981.93 961.498C2981.93 961.498 3062.72 1001.42 3116.48 984.132C3170.23 966.842 3196.95 892.338 3196.95 892.338C3196.95 892.338 3295.86 888.198 3310.13 785.454C3322.7 694.918 3203.24 650.907 3203.24 650.907C3203.24 650.907 3161.75 579.232 3074.98 584.262C3014.46 587.77 2961.81 628.273 2961.81 628.273" fill="none" fill-rule="evenodd" opacity="1" stroke="#000000" stroke-linecap="round" stroke-linejoin="round" stroke-width="32.2415"/>
<path d="M3172.25 1444.47L3160.49 1599.03C3160.49 1599.03 3129.37 1641.78 3095.1 1644.29C3060.84 1646.81 3023.43 1609.09 3023.43 1609.09C3023.43 1609.09 3007.39 1497.17 2941.69 1415.44C2875.99 1333.7 2755.33 1271.35 2755.33 1271.35" fill="none" fill-rule="evenodd" opacity="1" stroke="#000000" stroke-linecap="round" stroke-linejoin="round" stroke-width="32.2415"/>
<path d="M2482.41 569.563" fill="#ffc9c9" fill-rule="evenodd" opacity="1" stroke="none"/>
</g>
<g opacity="1">
<path d="M1061.29 944.475L1066.67 1287.66C1066.67 1287.66 1071.75 1299.93 1081.14 1306.63C1090.53 1313.32 1104.22 1314.45 1104.22 1314.45L1909.65 1310.45C1909.65 1310.45 1919.18 1311.65 1926.56 1316C1933.94 1320.36 1939.18 1327.87 1939.18 1327.87L1942.37 1509.96C1942.37 1509.96 1946.79 1521.79 1956.2 1528.5C1965.61 1535.22 1967.55 1535.22 1980.01 1536.81C1992.46 1538.4 2006.02 1534.87 2006.02 1534.87L2607.53 1120.08C2607.53 1120.08 2611.59 1112.84 2611.49 1106.01C2611.39 1099.17 2607.13 1092.73 2607.13 1092.73L2000.05 690.253C2000.05 690.253 1989.24 683.48 1974.61 684.876C1959.98 686.272 1953 688.857 1941.52 695.837C1930.04 702.817 1928.7 712.796 1928.7 712.796L1932.3 889.297C1932.3 889.297 1929.12 898.881 1922.5 904.714C1915.89 910.548 1905.84 912.631 1905.84 912.631L1097.67 918.837C1097.67 918.837 1084.73 922.616 1075.64 929.026C1066.54 935.435 1061.29 944.475 1061.29 944.475Z" fill="#000000" fill-rule="evenodd" opacity="1" stroke="#000000" stroke-linecap="round" stroke-linejoin="round" stroke-width="32.2415"/>
<path d="M1061.17 879.149L1066.55 1222.33C1066.55 1222.33 1071.64 1234.6 1081.02 1241.3C1090.41 1248 1104.1 1249.12 1104.1 1249.12L1909.53 1245.12C1909.53 1245.12 1919.06 1246.32 1926.45 1250.68C1933.83 1255.03 1939.07 1262.54 1939.07 1262.54L1942.25 1444.63C1942.25 1444.63 1946.68 1456.47 1956.09 1463.18C1965.5 1469.89 1967.44 1469.89 1979.89 1471.48C1992.35 1473.07 2005.91 1469.54 2005.91 1469.54L2607.41 1054.75C2607.41 1054.75 2611.47 1047.52 2611.38 1040.68C2611.28 1033.84 2607.02 1027.4 2607.02 1027.4L1999.94 624.927C1999.94 624.927 1989.13 618.154 1974.5 619.55C1959.86 620.946 1952.88 623.531 1941.41 630.511C1929.93 637.491 1928.58 647.47 1928.58 647.47L1932.18 823.972C1932.18 823.972 1929 833.555 1922.39 839.389C1915.77 845.222 1905.72 847.305 1905.72 847.305L1097.55 853.511C1097.55 853.511 1084.62 857.29 1075.52 863.7C1066.43 870.109 1061.17 879.149 1061.17 879.149Z" fill="#fefefe" fill-rule="evenodd" opacity="1" stroke="#000000" stroke-linecap="round" stroke-linejoin="round" stroke-width="32.2415"/>
<path d="M2602 1040.2L2627.36 1040.2L2627.36 1109.34L2602 1109.34L2602 1040.2Z" fill="#000000" fill-rule="evenodd" opacity="1" stroke="none"/>
</g>
<path d="M2604.78 998.626L2506.03 1078.17L2511.51 1193.38L2619.86 1272.25L2702.15 1091.89L2604.78 998.626Z" fill="#ffc9c9" fill-rule="evenodd" opacity="1" stroke="none"/>
<path d="M2594.49 1009.6C2594.49 1009.6 2415.46 1143.6 2544.43 1229.04C2709.01 1338.08 2787.56 1192.53 2787.56 1192.53" fill="none" fill-rule="evenodd" opacity="1" stroke="#000000" stroke-linecap="round" stroke-linejoin="round" stroke-width="32.2415"/>
</g>
</svg>
